teeny/solid/vim.svg

<svg width="15" height="15" viewBox="0 0 15 15" fill="none" xmlns="http://www.w3.org/2000/svg">
<path d="M7 1H1V4H2V14H5.74031L14 3.67539V1H8V4H9.43248L6 8.11898V4H7V1Z" fill="black"/>
</svg>

<svg viewBox="0 0 15 15" xmlns="http://www.w3.org/2000/svg"><path d="M7 1H1v3h1v10h3.74l8.25-10.33V.99h-6v3h1.43L5.98 8.1V3.98h1v-3Z"/></svg>
